; generated by PrusaSlicer 2.9.4 on 2026-02-08 at 21:03:44 UTC


;
;
; 

; external perimeters extrusion width = 0.45mm
; perimeters extrusion width = 0.45mm
; infill extrusion width = 0.45mm
; solid infill extrusion width = 0.45mm
; top infill extrusion width = 0.40mm
; first layer extrusion width = 0.80mm

M73 P0 R63
M73 Q0 S64
M201 X1000 Y1000 Z200 E5000 ; sets maximum accelerations, mm/sec^2
M203 X200 Y200 Z12 E120 ; sets maximum feedrates, mm / sec
M204 S1250 T1250 ; sets acceleration (S) and retract acceleration (R), mm/sec^2
M205 X8.00 Y8.00 Z0.40 E4.50 ; sets the jerk limits, mm/sec
M205 S0 T0 ; sets the minimum extruding and travel feed rate, mm/sec
;TYPE:Custom
M862.3 P "MK3S" ; printer model check
M862.1 P0.4 ; nozzle diameter check
M115 U3.14.1 ; tell printer latest fw version
G90 ; use absolute coordinates
M83 ; extruder relative mode
M104 S220 ; set extruder temp
M140 S60 ; set bed temp
M190 S60 ; wait for bed temp
M109 S220 ; wait for extruder temp
G28 W ; home all without mesh bed level
G80 X114.452 Y76.5929 W21.0779 H15.8744 ; mesh bed levelling

G1 Z0.2 F720
G1 Y-3 F1000 ; go outside print area
G92 E0
G1 X60 E9 F1000 ; intro line
G1 X100 E12.5 F1000 ; intro line

G92 E0
M221 S95

; Don't change E values below. Excessive value can damage the printer.

G21 ; set units to millimeters
G90 ; use absolute coordinates
M83 ; use relative distances for extrusion
; Filament gcode
M107
;LAYER_CHANGE
;Z:0.4
;HEIGHT:0.4
G1 E-2 F2100
G1 Z.6 F10200
G1 X116.511 Y79.419
G1 Z.4
G1 E2 F2100
;TYPE:Skirt/Brim
;WIDTH:0.8
G1 F1890
G1 X118.333 Y77.904 E.28142
G1 X120.554 Y77.075 E.28155
G1 X121.88 Y76.95 E.15818
G1 X128.121 Y76.95 E.74121
G1 X130.458 Y77.347 E.28153
G1 X132.532 Y78.494 E.28148
G1 X134.11 Y80.262 E.28145
G1 X135.016 Y82.452 E.28147
G1 X135.147 Y84.818 E.28143
G1 X134.489 Y87.095 E.28149
G1 X133.116 Y89.027 E.28149
G1 X132.152 Y89.831 E.14908
G1 X131.536 Y90.225 E.08684
G1 X129.638 Y91.181 E.2524
G1 X127.578 Y91.827 E.2564
G1 X125.609 Y92.096 E.23602
G1 X123.462 Y92.01 E.25519
G1 X121.632 Y91.626 E.22207
G1 X119.798 Y90.935 E.23276
G1 X117.913 Y89.875 E.25684
G1 X116.202 Y88.235 E.28148
G1 X115.128 Y86.122 E.28151
G1 X114.813 Y83.773 E.28148
G1 X115.292 Y81.452 E.28146
G1 X116.48 Y79.471 E.27434
G1 X117.116 Y79.936 F10200
G1 F1890
G1 X117.494 Y79.42 E.07597
G1 X119.368 Y78.181 E.26681
G1 X121.88 Y77.664 E.30459
G1 X128.121 Y77.664 E.74121
G1 X130.332 Y78.061 E.26679
G1 X132.267 Y79.202 E.26679
G1 X133.684 Y80.945 E.26678
G1 X134.407 Y83.072 E.26681
G1 X134.345 Y85.317 E.26673
G1 X133.505 Y87.401 E.26686
G1 X131.744 Y89.244 E.30274
G1 X130.636 Y89.917 E.15396
G1 X128.676 Y90.78 E.25435
G1 X127.439 Y91.127 E.15258
G1 X126.265 Y91.324 E.14138
G1 X124.395 Y91.381 E.22219
G1 X122.386 Y91.087 E.24114
G1 X121.249 Y90.754 E.14071
G1 X120.084 Y90.281 E.14933
G1 X118.269 Y89.253 E.24773
G1 X116.675 Y87.671 E.26672
G1 X115.731 Y85.633 E.26675
G1 X115.554 Y83.393 E.26686
G1 X116.167 Y81.232 E.26678
G1 X117.081 Y79.985 E.18362
;WIPE_START
G1 F8160
G1 X117.116 Y79.936 E-.01472
G1 X117.494 Y79.42 E-.15638
G1 X119.368 Y78.181 E-.54925
G1 X121.88 Y77.664 E-.62702
G1 X124.549 Y77.664 E-.65263
;WIPE_END
G1 Z.6 F10200
G1 X122.776 Y84.259
G1 Z.4
G1 E2 F2100
;TYPE:External perimeter
;WIDTH:0.476487
G1 F810
G1 X123.847 Y84.259 E.06958
;WIDTH:0.511073
G1 X124.258 Y84.277 E.02909
;WIDTH:0.54566
G1 X124.669 Y84.294 E.03146
G1 X125.604 Y84.287 E.0715
;WIDTH:0.531804
G1 X127.074 Y84.287 E.10902
G1 X126.66 Y84.471 E.0336
G1 X126.146 Y84.63 E.0399
G1 X125.647 Y84.729 E.03773
;WIDTH:0.551711
G1 X125.141 Y84.763 E.03929
G1 X124.63 Y84.751 E.0396
;WIDTH:0.54566
G1 X124.215 Y84.698 E.03199
;WIDTH:0.511073
G1 X123.801 Y84.645 E.02952
;WIDTH:0.476487
G1 X123.289 Y84.482 E.03491
G1 X122.831 Y84.283 E.03244
;LAYER_CHANGE
;Z:0.6
;HEIGHT:0.2
;BEFORE_LAYER_CHANGE
G92 E0.0
;0.6


;WIPE_START
G1 F8160
G1 X122.776 Y84.259 E-.01467
G1 X123.847 Y84.259 E-.26184
G1 X124.258 Y84.277 E-.10058
G1 X124.669 Y84.294 E-.10057
G1 X125.604 Y84.287 E-.2286
G1 X127.074 Y84.287 E-.35939
G1 X126.66 Y84.471 E-.11076
G1 X126.146 Y84.63 E-.13154
G1 X125.647 Y84.729 E-.12438
G1 X125.141 Y84.763 E-.12399
G1 X124.63 Y84.751 E-.12497
G1 X124.215 Y84.698 E-.10229
G1 X123.801 Y84.645 E-.10204
G1 X123.355 Y84.503 E-.11438
;WIPE_END
G1 Z.6 F10200
;AFTER_LAYER_CHANGE
;0.6
G1 X123.146 Y85.047
G1 E2 F2100
;TYPE:Overhang perimeter
;WIDTH:0.4
;HEIGHT:0.4
G1 F1800
G1 X123.606 Y85.044 E.02403
;TYPE:Perimeter
;WIDTH:0.416329
;HEIGHT:0.2
G1 F600
G1 X124.369 Y85.044 E.02369
;WIDTH:0.439076
G1 X125.149 Y85.055 E.0257
G1 X125.546 Y85.041 E.01309
;WIDTH:0.412222
G1 X125.942 Y85.028 E.01217
;WIDTH:0.385368
G1 X126.44 Y85.028 E.01418
;TYPE:Overhang perimeter
;WIDTH:0.4
;HEIGHT:0.4
G1 F1800
G1 X126.932 Y85.028 E.0257
G1 X126.776 Y85.102 E.00902
G1 X125.965 Y85.369 E.04461
G1 X125.138 Y85.451 E.04342
G1 X124.358 Y85.417 E.04079
G1 X123.962 Y85.337 E.02111
G1 X123.202 Y85.067 E.04214
;WIPE_START
G1 F8160
G1 X123.146 Y85.047 E-.01454
G1 X123.606 Y85.044 E-.11247
G1 X124.369 Y85.044 E-.18654
G1 X125.149 Y85.055 E-.19072
G1 X125.546 Y85.041 E-.09712
G1 X125.942 Y85.028 E-.09687
G1 X126.44 Y85.028 E-.12175
;WIPE_END
G1 E-1.17999 F2100
G1 Z.8 F10200
G1 X121.72 Y84.653
G1 Z.6
G1 E2 F2100
G1 F1800
G1 X122.583 Y84.653 E.04509
;TYPE:Perimeter
;WIDTH:0.449999
;HEIGHT:0.2
G1 F600
G1 X127.418 Y84.653 E.16366
;TYPE:Overhang perimeter
;WIDTH:0.4
;HEIGHT:0.4
G1 F1800
G1 X128.272 Y84.657 E.04462
G1 X127.824 Y84.975 E.0287
G1 X127.367 Y85.236 E.0275
G1 X126.499 Y85.608 E.04934
G1 X126.016 Y85.74 E.02616
G1 X125.114 Y85.852 E.04749
G1 X124.254 Y85.796 E.04503
G1 X123.452 Y85.591 E.04325
G1 X122.971 Y85.4 E.02704
G1 X122.522 Y85.177 E.02619
G1 X121.771 Y84.686 E.04688
;WIPE_START
G1 F8160
G1 X121.72 Y84.653 E-.01485
G1 X122.583 Y84.653 E-.21099
G1 X127.418 Y84.653 E-1.18209
;WIPE_END
G1 E-.59207 F2100
G1 Z.8 F10200
G1 X120.633 Y84.246
G1 Z.6
G1 E2 F2100
G1 F1800
G1 X121.854 Y84.246 E.06379
;TYPE:External perimeter
;WIDTH:0.449999
;HEIGHT:0.2
G1 F600
G1 X128.148 Y84.246 E.21304
;TYPE:Overhang perimeter
;WIDTH:0.4
;HEIGHT:0.4
G1 F1800
G1 X129.366 Y84.246 E.06363
G1 X129.034 Y84.564 E.02402
G1 X128.521 Y84.985 E.03467
G1 X128.049 Y85.315 E.03009
G1 X127.589 Y85.579 E.02771
G1 X127.115 Y85.807 E.02748
G1 X126.644 Y85.988 E.02636
G1 X126.137 Y86.135 E.02758
G1 X125.188 Y86.264 E.05004
G1 X124.312 Y86.213 E.04584
G1 X123.773 Y86.113 E.02864
G1 X123.262 Y85.956 E.02793
G1 X122.79 Y85.765 E.0266
G1 X122.315 Y85.527 E.02776
G1 X121.832 Y85.239 E.02938
G1 X121.401 Y84.923 E.02792
G1 X120.678 Y84.286 E.05034
M106 S255
;LAYER_CHANGE
;Z:0.8
;HEIGHT:0.2
;BEFORE_LAYER_CHANGE
G92 E0.0
;0.8


;WIPE_START
G1 F8160
G1 X120.633 Y84.246 E-.01472
G1 X121.854 Y84.246 E-.29852
G1 X128.148 Y84.246 E-1.53879
;WIPE_END
G1 E-.14797 F2100
G1 Z.8 F10200
;AFTER_LAYER_CHANGE
;0.8
G1 X121.669 Y85.06
G1 E2 F2100
;TYPE:Perimeter
;WIDTH:0.449999
G1 F699
G1 X128.332 Y85.06 E.22553
G1 X128.034 Y85.288 E.0127
G1 X127.588 Y85.586 E.01816
G1 X126.75 Y86.01 E.03179
G1 X125.974 Y86.25 E.02749
G1 X125.158 Y86.354 E.02784
G1 X124.367 Y86.311 E.02681
G1 X123.573 Y86.123 E.02762
G1 X123.145 Y85.964 E.01545
G1 X122.286 Y85.505 E.03297
G1 X121.717 Y85.095 E.02374
;WIPE_START
G1 F8160
G1 X121.669 Y85.06 E-.01452
G1 X128.332 Y85.06 E-1.62901
G1 X128.034 Y85.288 E-.09174
G1 X127.588 Y85.586 E-.13114
G1 X127.1 Y85.833 E-.13359
;WIPE_END
G1 Z1 F10200
G1 X120.609 Y84.653
G1 Z.8
G1 E2 F2100
G1 F699
G1 X129.396 Y84.653 E.29743
G1 X129.218 Y84.843 E.00881
G1 X128.743 Y85.259 E.02137
G1 X128.274 Y85.617 E.01997
G1 X127.61 Y86.042 E.02669
;TYPE:Overhang perimeter
;WIDTH:0.4
;HEIGHT:0.4
G1 F1800
G1 X127.361 Y86.184 E.01498
G1 X126.886 Y86.394 E.02713
G1 X126.052 Y86.65 E.04558
G1 X125.173 Y86.762 E.04629
G1 X124.309 Y86.715 E.04521
G1 X123.422 Y86.506 E.04761
G1 X122.954 Y86.323 E.02625
G1 X122.717 Y86.196 E.01405
;TYPE:Perimeter
;WIDTH:0.449999
;HEIGHT:0.2
G1 F699
G1 X122.055 Y85.84 E.02544
G1 X121.62 Y85.54 E.01789
G1 X121.154 Y85.173 E.02008
G1 X120.652 Y84.695 E.02346
G1 X120.012 Y84.246 F10200
;TYPE:External perimeter
G1 F699
G1 X129.99 Y84.246 E.33774
;TYPE:Overhang perimeter
;WIDTH:0.4
;HEIGHT:0.4
G1 F1800
G1 X130.335 Y84.246 E.01802
G1 X130.293 Y84.295 E.00337
G1 X129.5 Y85.137 E.06043
G1 X128.981 Y85.589 E.03596
G1 X128.486 Y85.965 E.03248
G1 X127.992 Y86.292 E.03095
G1 X127.491 Y86.572 E.02999
G1 X126.65 Y86.909 E.04733
G1 X126.13 Y87.051 E.02816
G1 X125.187 Y87.171 E.04966
G1 X124.25 Y87.12 E.04903
G1 X123.304 Y86.896 E.05079
G1 X122.762 Y86.682 E.03044
G1 X121.825 Y86.175 E.05566
G1 X121.369 Y85.86 E.02896
G1 X120.596 Y85.223 E.05233
G1 X119.642 Y84.246 E.07134
G1 X119.952 Y84.246 E.0162
;WIPE_START
G1 F8160
M73 Q0 S63
G1 X120.012 Y84.246 E-.01467
G1 X128.132 Y84.246 E-1.98533
;WIPE_END
G1 Z1 F10200
G1 X122.99 Y85.445
G1 Z.8
G1 E2 F2100
;TYPE:Solid infill
;WIDTH:0.527505
;HEIGHT:0.2
G1 F699
G1 X124.457 Y85.445 E.05911
;WIDTH:0.545964
G1 X125.134 Y85.454 E.02832
G1 X125.859 Y85.431 E.03034
;WIDTH:0.500063
G1 X127.104 Y85.431 E.04732
G1 X127.01 Y85.488 E.00418
G1 X126.254 Y85.791 E.03096
G1 X125.888 Y85.887 E.01438
;WIDTH:0.545964
G1 X125.121 Y85.957 E.03222
G1 X124.401 Y85.923 E.03015
;WIDTH:0.527505
G1 X123.643 Y85.743 E.03139
G1 X123.175 Y85.53 E.02072
;LAYER_CHANGE
;Z:1
;HEIGHT:0.2
;BEFORE_LAYER_CHANGE
G92 E0.0
;1


;WIPE_START
G1 F8160
G1 X123.643 Y85.743 E-.12571
G1 X124.401 Y85.923 E-.19047
G1 X125.121 Y85.957 E-.17623
G1 X125.888 Y85.887 E-.1883
G1 X126.254 Y85.791 E-.09251
G1 X127.01 Y85.488 E-.19912
G1 X127.104 Y85.431 E-.02688
G1 X125.859 Y85.431 E-.30438
G1 X125.134 Y85.454 E-.17734
G1 X124.457 Y85.445 E-.16553
G1 X123.011 Y85.445 E-.35353
;WIPE_END
G1 Z1 F10200
;AFTER_LAYER_CHANGE
;1
G1 X120.62 Y85.06
G1 E2 F2100
;TYPE:Perimeter
;WIDTH:0.449999
G1 F1116
G1 X129.383 Y85.06 E.29662
G1 X128.906 Y85.516 E.02234
G1 X128.448 Y85.908 E.02041
G1 X128.014 Y86.22 E.01809
G1 X127.197 Y86.694 E.03197
G1 X126.717 Y86.907 E.01778
G1 X125.97 Y87.136 E.02645
G1 X125.159 Y87.233 E.02765
G1 X124.414 Y87.195 E.02525
G1 X123.977 Y87.124 E.01499
G1 X123.198 Y86.869 E.02774
G1 X122.773 Y86.68 E.01574
G1 X122.317 Y86.43 E.0176
G1 X121.883 Y86.151 E.01746
G1 X121.448 Y85.824 E.01842
G1 X120.996 Y85.427 E.02036
G1 X120.663 Y85.102 E.01575
;WIPE_START
G1 F8160
G1 X120.62 Y85.06 E-.0147
G1 X128.741 Y85.06 E-1.9853
;WIPE_END
G1 Z1.2 F10200
G1 X119.7 Y84.653
G1 Z1
G1 E2 F2100
G1 F1116
G1 X130.294 Y84.653 E.35859
G1 X130.189 Y84.787 E.00576
G1 X129.663 Y85.356 E.02623
G1 X129.185 Y85.814 E.02241
G1 X128.717 Y86.216 E.02088
G1 X128.259 Y86.547 E.01913
G1 X127.801 Y86.833 E.01828
G1 X127.348 Y87.075 E.01738
G1 X126.885 Y87.277 E.0171
;TYPE:Overhang perimeter
;WIDTH:0.4
;HEIGHT:0.4
G1 F1800
G1 X126.799 Y87.307 E.00476
;TYPE:Perimeter
;WIDTH:0.449999
;HEIGHT:0.2
G1 F1116
G1 X126.633 Y87.358 E.00588
;TYPE:Overhang perimeter
;WIDTH:0.4
;HEIGHT:0.4
G1 F1800
G1 X126.045 Y87.537 E.03211
G1 X125.172 Y87.641 E.04593
G1 X124.393 Y87.601 E.04075
G1 X123.876 Y87.52 E.02734
G1 X123.43 Y87.374 E.02452
;TYPE:Perimeter
;WIDTH:0.449999
;HEIGHT:0.2
G1 F1116
G1 X122.998 Y87.232 E.01539
G1 X122.522 Y87.008 E.01781
G1 X122.076 Y86.759 E.01729
G1 X121.621 Y86.463 E.01837
G1 X121.166 Y86.119 E.01931
G1 X120.708 Y85.715 E.02067
G1 X120.233 Y85.25 E.0225
G1 X119.74 Y84.698 E.02505
G1 X119.11 Y84.246 F10200
;TYPE:External perimeter
G1 F1116
G1 X130.89 Y84.246 E.39874
;TYPE:Overhang perimeter
;WIDTH:0.4
;HEIGHT:0.4
G1 F1800
G1 X131.13 Y84.246 E.01254
G1 X130.499 Y85.051 E.05344
G1 X129.935 Y85.659 E.04333
G1 X129.437 Y86.134 E.03596
G1 X128.925 Y86.568 E.03507
G1 X128.445 Y86.911 E.03082
G1 X127.958 Y87.211 E.02988
G1 X127.471 Y87.466 E.02872
G1 X126.657 Y87.792 E.04581
G1 X126.121 Y87.938 E.02902
G1 X125.186 Y88.049 E.04919
G1 X124.372 Y88.008 E.04258
G1 X123.776 Y87.915 E.03151
G1 X122.848 Y87.611 E.05102
G1 X122.378 Y87.394 E.02705
G1 X121.899 Y87.129 E.0286
G1 X121.418 Y86.82 E.02987
G1 X120.933 Y86.456 E.03168
G1 X120.443 Y86.024 E.03413
G1 X119.947 Y85.541 E.03617
G1 X119.401 Y84.932 E.04273
G1 X118.87 Y84.246 E.04532
G1 X119.05 Y84.246 E.0094
;WIPE_START
G1 F8160
G1 X119.11 Y84.246 E-.01467
G1 X127.23 Y84.246 E-1.98533
;WIPE_END
G1 Z1.2 F10200
G1 X128.295 Y85.406
G1 Z1
G1 E2 F2100
;TYPE:Solid infill
;WIDTH:0.449999
;HEIGHT:0.2
G1 F1116
G1 X121.497 Y85.406 E.2301
G1 X122.073 Y85.861 E.02485
G1 X122.508 Y86.139 E.01747
G1 X123.278 Y86.531 E.02925
G1 X124.062 Y86.788 E.02793
G1 X124.432 Y86.849 E.01269
G1 X125.147 Y86.886 E.02423
G1 X125.901 Y86.796 E.0257
G1 X126.624 Y86.572 E.02562
G1 X127.426 Y86.179 E.03023
G1 X128.245 Y85.628 E.03341
G1 X128.498 Y85.406 E.01139
G1 X125.122 Y85.877 F10200
;WIDTH:0.577871
G1 F1116
G1 X125.755 Y85.859 E.02817
;WIDTH:0.540291
G1 X127.053 Y85.859 E.05368
G1 X126.445 Y86.154 E.02795
G1 X125.784 Y86.354 E.02856
;WIDTH:0.577871
G1 X125.108 Y86.412 E.03018
G1 X124.455 Y86.387 E.02907
;WIDTH:0.561189
G1 X124.176 Y86.338 E.01221
G1 X123.456 Y86.102 E.03265
G1 X122.997 Y85.869 E.02218
G1 X124.468 Y85.869 E.06339
;WIDTH:0.572675
G1 X124.918 Y85.875 E.01982
;LAYER_CHANGE
;Z:1.2
;HEIGHT:0.2
;BEFORE_LAYER_CHANGE
G92 E0.0
;1.2


;WIPE_START
G1 F8160
G1 X124.468 Y85.869 E-.11003
G1 X122.997 Y85.869 E-.35964
G1 X123.456 Y86.102 E-.12585
G1 X124.176 Y86.338 E-.18524
G1 X124.455 Y86.387 E-.06926
G1 X125.108 Y86.412 E-.15977
G1 X125.784 Y86.354 E-.16588
G1 X126.445 Y86.154 E-.16884
G1 X127.053 Y85.859 E-.16522
G1 X125.755 Y85.859 E-.31734
G1 X125.122 Y85.877 E-.15482
;WIPE_END
G1 E-.01811 F2100
G1 Z1.2 F10200
;AFTER_LAYER_CHANGE
;1.2
G1 X119.779 Y85.06
G1 E2 F2100
;TYPE:Perimeter
;WIDTH:0.449999
G1 F1532
G1 X130.217 Y85.06 E.35331
G1 X129.804 Y85.546 E.02159
G1 X129.347 Y86.025 E.02241
G1 X128.899 Y86.426 E.02035
G1 X128.467 Y86.773 E.01876
G1 X128.043 Y87.078 E.01768
G1 X127.588 Y87.357 E.01807
G1 X127.129 Y87.584 E.01733
G1 X126.367 Y87.868 E.02753
G1 X125.55 Y88.035 E.02823
G1 X124.765 Y88.062 E.02659
G1 X123.974 Y87.954 E.02702
G1 X123.217 Y87.722 E.0268
G1 X122.786 Y87.545 E.01577
G1 X122.328 Y87.311 E.01741
G1 X121.906 Y87.044 E.0169
G1 X121.464 Y86.721 E.01853
G1 X121.013 Y86.35 E.01977
G1 X120.562 Y85.933 E.02079
G1 X120.103 Y85.442 E.02275
G1 X119.818 Y85.106 E.01491
G1 X118.938 Y84.653 F10200
G1 F1532
G1 X131.049 Y84.653 E.40994
G1 X130.787 Y85.02 E.01526
G1 X130.105 Y85.819 E.03556
G1 X129.601 Y86.344 E.02463
G1 X129.138 Y86.756 E.02098
G1 X128.66 Y87.137 E.02069
G1 X128.184 Y87.472 E.0197
G1 X127.726 Y87.743 E.01801
G1 X126.959 Y88.095 E.02857
G1 X126.472 Y88.262 E.01743
G1 X125.598 Y88.441 E.0302
G1 X124.744 Y88.47 E.02892
G1 X123.886 Y88.353 E.02931
G1 X123.004 Y88.083 E.03122
G1 X122.518 Y87.868 E.01799
G1 X122.067 Y87.628 E.01729
G1 X121.635 Y87.35 E.01739
G1 X121.186 Y87.019 E.01888
G1 X120.721 Y86.634 E.02043
G1 X120.251 Y86.197 E.02172
G1 X119.785 Y85.697 E.02314
G1 X118.976 Y84.7 E.04346
G1 X118.327 Y84.246 F10200
;TYPE:External perimeter
G1 F1532
G1 X131.672 Y84.246 E.45171
;TYPE:Overhang perimeter
;WIDTH:0.4
;HEIGHT:0.4
G1 F1800
G1 X131.839 Y84.246 E.00872
G1 X131.114 Y85.263 E.06525
G1 X130.409 Y86.091 E.05682
G1 X129.914 Y86.61 E.03747
G1 X129.425 Y87.047 E.03426
G1 X128.938 Y87.439 E.03266
G1 X128.516 Y87.74 E.02708
G1 X128.053 Y88.028 E.02849
G1 X127.577 Y88.273 E.02797
G1 X127.115 Y88.471 E.02626
G1 X126.577 Y88.656 E.02972
G1 X125.646 Y88.846 E.04964
G1 X124.723 Y88.878 E.04825
G1 X123.799 Y88.752 E.04872
G1 X122.863 Y88.465 E.05115
G1 X122.395 Y88.263 E.02663
G1 X121.923 Y88.018 E.02778
G1 X121.447 Y87.717 E.02942
G1 X120.965 Y87.364 E.03121
G1 X120.478 Y86.964 E.03293
G1 X119.987 Y86.51 E.03494
G1 X119.491 Y85.979 E.03796
G1 X118.883 Y85.262 E.04911
G1 X118.161 Y84.246 E.06512
G1 X118.267 Y84.246 E.00554
;WIPE_START
G1 F8160
G1 X118.327 Y84.246 E-.01467
G1 X126.447 Y84.246 E-1.98533
;WIPE_END
G1 Z1.4 F10200
G1 X120.545 Y85.406
G1 Z1.2
G1 E2 F2100
;TYPE:Solid infill
;WIDTH:0.449999
;HEIGHT:0.2
G1 F1532
G1 X129.45 Y85.406 E.30142
G1 X129.098 Y85.784 E.01748
G1 X128.666 Y86.169 E.01959
G1 X128.223 Y86.524 E.01922
G1 X127.784 Y86.832 E.01815
G1 X126.96 Y87.276 E.03168
G1 X126.189 Y87.551 E.02771
G1 X125.413 Y87.693 E.0267
