; generated by PrusaSlicer 2.9.4 on 2026-02-08 at 21:02:21 UTC


;
;
; 

; external perimeters extrusion width = 0.45mm
; perimeters extrusion width = 0.45mm
; infill extrusion width = 0.45mm
; solid infill extrusion width = 0.45mm
; top infill extrusion width = 0.40mm
; first layer extrusion width = 0.80mm

M73 P0 R32
M73 Q0 S32
M201 X1000 Y1000 Z200 E5000 ; sets maximum accelerations, mm/sec^2
M203 X200 Y200 Z12 E120 ; sets maximum feedrates, mm / sec
M204 S1250 T1250 ; sets acceleration (S) and retract acceleration (R), mm/sec^2
M205 X8.00 Y8.00 Z0.40 E4.50 ; sets the jerk limits, mm/sec
M205 S0 T0 ; sets the minimum extruding and travel feed rate, mm/sec
;TYPE:Custom
M862.3 P "MK3S" ; printer model check
M862.1 P0.4 ; nozzle diameter check
M115 U3.14.1 ; tell printer latest fw version
G90 ; use absolute coordinates
M83 ; extruder relative mode
M104 S220 ; set extruder temp
M140 S60 ; set bed temp
M190 S60 ; wait for bed temp
M109 S220 ; wait for extruder temp
G28 W ; home all without mesh bed level
G80 X113.028 Y75.3898 W23.9442 H59.1879 ; mesh bed levelling

G1 Z0.2 F720
G1 Y-3 F1000 ; go outside print area
G92 E0
G1 X60 E9 F1000 ; intro line
G1 X100 E12.5 F1000 ; intro line

G92 E0
M221 S95

; Don't change E values below. Excessive value can damage the printer.

G21 ; set units to millimeters
G90 ; use absolute coordinates
M83 ; use relative distances for extrusion
; Filament gcode
M107
;LAYER_CHANGE
;Z:0.4
;HEIGHT:0.4
G1 E-2 F2100
G1 Z.6 F10200
G1 X119.712 Y78.052
G1 Z.4
G1 E2 F2100
;TYPE:Skirt/Brim
;WIDTH:0.8
G1 F1890
G1 X121.562 Y76.571 E.28145
G1 X123.797 Y75.783 E.28146
G1 X126.167 Y75.778 E.28147
G1 X128.406 Y76.557 E.28155
G1 X130.261 Y78.032 E.28147
G1 X131.484 Y79.939 E.26906
G1 X131.714 Y80.475 E.06927
G1 X132.575 Y82.785 E.29278
G1 X133.268 Y85.06 E.28245
G1 X134.028 Y88.127 E.37527
G1 X134.897 Y92.118 E.4851
G1 X135.867 Y97.837 E.68892
G1 X136.394 Y103.211 E.64131
G1 X136.554 Y106.611 E.40425
G1 X136.615 Y110.272 E.43486
G1 X136.562 Y113.577 E.39257
G1 X136.419 Y116.332 E.32764
G1 X135.969 Y120.536 E.50214
G1 X135.224 Y124.707 E.50321
G1 X134.841 Y126.114 E.17318
G1 X134.414 Y127.285 E.14803
G1 X133.947 Y128.279 E.13043
G1 X133.319 Y129.34 E.14643
G1 X132.465 Y130.481 E.16926
G1 X131.462 Y131.54 E.17323
G1 X130.505 Y132.341 E.14822
G1 X129.482 Y133.012 E.1453
G1 X128.303 Y133.585 E.15569
G1 X127.285 Y133.926 E.12751
G1 X125.531 Y134.211 E.21105
G1 X124.484 Y134.212 E.12435
G1 X122.732 Y133.93 E.21075
G1 X121.71 Y133.59 E.12792
G1 X120.361 Y132.921 E.17883
G1 X118.936 Y131.894 E.20861
G1 X117.855 Y130.847 E.17873
G1 X116.8 Y129.517 E.20162
G1 X115.968 Y128.114 E.19372
G1 X115.286 Y126.496 E.20854
G1 X114.757 Y124.623 E.23115
G1 X114.247 Y121.973 E.3205
G1 X113.843 Y119.074 E.34763
G1 X113.582 Y116.345 E.32559
G1 X113.438 Y113.59 E.32764
G1 X113.387 Y109.678 E.46465
G1 X113.465 Y106.065 E.4292
G1 X113.635 Y102.776 E.39114
G1 X113.915 Y99.626 E.37559
G1 X114.295 Y96.687 E.35196
G1 X115.338 Y90.986 E.68832
G1 X116.235 Y87.005 E.48466
G1 X116.895 Y84.48 E.30996
G1 X117.583 Y82.327 E.26844
G1 X118.456 Y80.062 E.28829
G1 X119.681 Y78.103 E.2744
G1 X120.291 Y78.493 F10200
G1 F1890
G1 X120.325 Y78.44 E.00748
G1 X122.116 Y77.085 E.26673
G1 X124.267 Y76.437 E.2668
G1 X126.509 Y76.577 E.26679
G1 X128.562 Y77.489 E.2668
G1 X130.17 Y79.058 E.26682
G1 X130.829 Y80.223 E.15896
G1 X131.542 Y82.006 E.22806
G1 X132.202 Y83.954 E.24427
G1 X132.84 Y86.236 E.28142
G1 X134.42 Y93.397 E.87093
G1 X134.986 Y96.706 E.3987
G1 X135.373 Y99.686 E.35689
G1 X135.653 Y102.825 E.37428
G1 X135.836 Y106.521 E.43949
G1 X135.901 Y110.274 E.44579
G1 X135.848 Y113.558 E.39008
G1 X135.525 Y118.304 E.56496
G1 X134.884 Y122.818 E.54148
G1 X134.162 Y125.894 E.37525
G1 X133.757 Y127.005 E.14044
G1 X133.195 Y128.169 E.15351
G1 X132.477 Y129.304 E.15951
G1 X131.487 Y130.506 E.18494
G1 X130.466 Y131.464 E.16628
G1 X129.288 Y132.299 E.17149
G1 X128.044 Y132.92 E.16513
G1 X127.092 Y133.238 E.11921
G1 X126.239 Y133.418 E.10354
G1 X124.707 Y133.508 E.18226
G1 X123.592 Y133.39 E.13316
G1 X122.145 Y132.993 E.1782
G1 X120.886 Y132.401 E.16523
G1 X119.781 Y131.661 E.15795
G1 X118.691 Y130.691 E.17329
G1 X117.65 Y129.478 E.18984
G1 X116.809 Y128.175 E.18419
G1 X116.165 Y126.814 E.17882
G1 X115.639 Y125.209 E.20059
G1 X115.19 Y123.212 E.24309
G1 X114.74 Y120.448 E.33259
G1 X114.415 Y117.72 E.32628
G1 X114.214 Y115.005 E.32333
G1 X114.119 Y112.337 E.31707
G1 X114.161 Y106.591 E.68244
G1 X114.346 Y102.841 E.44591
G1 X114.625 Y99.702 E.37427
G1 X115.013 Y96.716 E.35761
G1 X115.575 Y93.423 E.39675
G1 X116.405 Y89.444 E.48274
G1 X117.348 Y85.516 E.47976
G1 X118.102 Y83.013 E.31046
G1 X119.117 Y80.334 E.34024
G1 X120.259 Y78.543 E.25227
;WIPE_START
G1 F8160
G1 X120.291 Y78.493 E-.01451
G1 X120.325 Y78.44 E-.01539
G1 X122.116 Y77.085 E-.54907
G1 X124.267 Y76.437 E-.54923
G1 X126.509 Y76.577 E-.5492
G1 X127.715 Y77.113 E-.3226
;WIPE_END
G1 Z.6 F10200
G1 X124.987 Y89.571
G1 Z.4
G1 E2 F2100
;TYPE:Perimeter
;WIDTH:0.8
G1 F1620
G1 X125.002 Y89.508 E.00769
G1 X125.168 Y90.201 E.08463
G1 X125.984 Y93.954 E.45614
G1 X126.371 Y95.989 E.24602
G1 X126.697 Y97.975 E.23902
G1 X126.912 Y99.534 E.18691
G1 X127.093 Y101.116 E.18911
G1 X127.212 Y102.393 E.15232
G1 X127.312 Y103.788 E.1661
G1 X127.398 Y105.365 E.18757
G1 X127.473 Y107.391 E.24078
G1 X127.508 Y109.115 E.20479
G1 X127.514 Y110.903 E.21235
G1 X127.466 Y113.334 E.28877
G1 X127.414 Y114.525 E.14158
G1 X127.294 Y116.306 E.212
G1 X127.185 Y117.436 E.13483
G1 X126.957 Y119.278 E.22043
G1 X126.779 Y120.466 E.14267
G1 X126.527 Y121.873 E.16976
G1 X126.257 Y123.043 E.14261
G1 X125.994 Y123.813 E.09664
G1 X125.745 Y124.275 E.06233
G1 X125.423 Y124.703 E.06361
G1 X124.997 Y125.081 E.06764
G1 X124.805 Y124.932 E.02886
G1 X124.349 Y124.42 E.08143
G1 X124.088 Y123.98 E.06076
G1 X123.874 Y123.483 E.06427
G1 X123.677 Y122.797 E.08477
G1 X123.473 Y121.878 E.1118
G1 X123.221 Y120.467 E.17023
G1 X122.957 Y118.634 E.21994
G1 X122.758 Y116.877 E.21
G1 X122.621 Y115.131 E.208
G1 X122.534 Y113.324 E.21486
G1 X122.502 Y112.118 E.14328
G1 X122.487 Y109.711 E.28587
G1 X122.513 Y107.934 E.21107
G1 X122.563 Y106.295 E.19475
G1 X122.647 Y104.481 E.21567
G1 X122.766 Y102.671 E.21543
G1 X122.904 Y101.144 E.18209
G1 X123.088 Y99.533 E.19257
G1 X123.47 Y96.917 E.31398
G1 X123.831 Y94.895 E.24394
G1 X124.456 Y91.873 E.3665
G1 X124.974 Y89.63 E.2734
;WIPE_START
G1 F8160
G1 X124.987 Y89.571 E-.01477
G1 X125.002 Y89.508 E-.01583
G1 X125.168 Y90.201 E-.17422
G1 X125.984 Y93.954 E-.93899
G1 X126.371 Y95.989 E-.50644
G1 X126.603 Y97.401 E-.34975
;WIPE_END
G1 Z.6 F10200
G1 X125 Y86.651
G1 Z.4
M73 P1 R32
M73 Q1 S32
G1 E2 F2100
G1 F1620
G1 X125.402 Y88.116 E.18042
G1 X125.864 Y90.041 E.23512
G1 X126.684 Y93.812 E.45833
G1 X127.074 Y95.864 E.24807
G1 X127.403 Y97.869 E.24131
G1 X127.62 Y99.444 E.18882
G1 X127.803 Y101.043 E.19115
G1 X127.924 Y102.334 E.154
G1 X128.025 Y103.743 E.16777
G1 X128.112 Y105.332 E.189
G1 X128.187 Y107.371 E.24233
G1 X128.222 Y109.107 E.20622
G1 X128.228 Y110.909 E.21402
G1 X128.179 Y113.356 E.29068
G1 X128.127 Y114.564 E.1436
G1 X128.006 Y116.365 E.21438
G1 X127.895 Y117.514 E.1371
G1 X127.668 Y119.349 E.2196
G1 X127.484 Y120.582 E.14806
G1 X127.228 Y122.012 E.17253
G1 X126.963 Y123.179 E.14213
G1 X126.81 Y123.668 E.06085
G1 X126.617 Y124.174 E.06432
G1 X126.359 Y124.639 E.06316
G1 X126.039 Y125.086 E.06529
G1 X125.67 Y125.455 E.06198
G1 X125.291 Y125.743 E.05653
G1 X125.026 Y125.823 E.03288
G1 X124.769 Y125.776 E.03103
G1 X124.473 Y125.58 E.04216
G1 X124.054 Y125.182 E.06863
G1 X123.718 Y124.767 E.06342
G1 X123.418 Y124.243 E.07171
G1 X123.196 Y123.711 E.06846
G1 X122.984 Y122.973 E.09119
G1 X122.773 Y122.018 E.11616
G1 X122.516 Y120.581 E.17337
G1 X122.248 Y118.725 E.22271
G1 X122.047 Y116.945 E.21275
G1 X121.908 Y115.176 E.21074
G1 X121.82 Y113.351 E.217
G1 X121.787 Y112.129 E.14518
G1 X121.772 Y109.708 E.28754
G1 X121.799 Y107.918 E.21261
G1 X121.849 Y106.268 E.19605
G1 X121.934 Y104.441 E.21722
G1 X122.054 Y102.615 E.21733
G1 X122.194 Y101.072 E.18401
G1 X122.38 Y99.444 E.19461
G1 X122.594 Y97.89 E.1863
G1 X122.766 Y96.798 E.13129
G1 X123.129 Y94.76 E.24585
G1 X123.758 Y91.72 E.36869
G1 X124.51 Y88.464 E.39688
G1 X124.984 Y86.709 E.2159
;WIPE_START
G1 F8160
G1 X125 Y86.651 E-.01471
G1 X125.402 Y88.116 E-.37141
G1 X125.864 Y90.041 E-.484
G1 X126.684 Y93.812 E-.9435
G1 X126.826 Y94.561 E-.18638
;WIPE_END
G1 Z.6 F10200
G1 X124.998 Y83.835
G1 Z.4
G1 E2 F2100
;TYPE:External perimeter
G1 F810
G1 X125.394 Y84.885 E.13328
G1 X125.451 Y85.454 E.06792
G1 X125.564 Y86.012 E.06762
G1 X126.094 Y87.938 E.23724
G1 X126.561 Y89.882 E.23745
G1 X127.384 Y93.669 E.46026
G1 X127.778 Y95.74 E.25037
G1 X128.109 Y97.762 E.24334
G1 X128.329 Y99.355 E.19099
G1 X128.514 Y100.969 E.19294
G1 X128.635 Y102.275 E.15577
G1 X128.738 Y103.698 E.16944
G1 X128.825 Y105.3 E.19054
G1 X128.901 Y107.351 E.24375
G1 X128.936 Y109.099 E.20764
G1 X128.942 Y110.915 E.21568
G1 X128.893 Y113.379 E.2927
G1 X128.84 Y114.604 E.14562
G1 X128.717 Y116.423 E.21653
G1 X128.605 Y117.592 E.13947
G1 X128.376 Y119.446 E.22186
G1 X128.189 Y120.698 E.15034
G1 X127.928 Y122.154 E.17568
G1 X127.653 Y123.365 E.14749
G1 X127.419 Y124.113 E.09308
G1 X127.21 Y124.604 E.06338
G1 X126.926 Y125.082 E.06603
G1 X126.599 Y125.529 E.06578
G1 X126.164 Y125.971 E.07365
G1 X125.747 Y126.297 E.06286
G1 X125.246 Y126.527 E.06547
G1 X124.877 Y126.547 E.04389
G1 X124.696 Y126.497 E.0223
G1 X124.347 Y126.359 E.04457
G1 X123.869 Y126.018 E.06973
G1 X123.371 Y125.501 E.08525
G1 X123.05 Y125.063 E.06449
G1 X122.715 Y124.445 E.08349
G1 X122.519 Y123.94 E.06434
G1 X122.292 Y123.149 E.09774
G1 X122.073 Y122.158 E.12054
G1 X121.811 Y120.695 E.17652
G1 X121.54 Y118.816 E.22547
G1 X121.336 Y117.014 E.21538
G1 X121.195 Y115.221 E.2136
G1 X121.107 Y113.378 E.21913
G1 X121.073 Y112.141 E.14697
G1 X121.058 Y109.705 E.28932
G1 X121.085 Y107.902 E.21416
G1 X121.135 Y106.241 E.19736
G1 X121.221 Y104.401 E.21877
G1 X121.342 Y102.559 E.21924
G1 X121.483 Y100.999 E.18603
G1 X121.671 Y99.355 E.19652
G1 X121.887 Y97.786 E.1881
G1 X122.061 Y96.68 E.13297
G1 X122.428 Y94.625 E.24792
G1 X123.06 Y91.568 E.37074
G1 X123.817 Y88.29 E.39956
G1 X124.457 Y85.923 E.29121
G1 X124.563 Y85.39 E.06454
G1 X124.657 Y84.735 E.07859
G1 X124.977 Y83.891 E.1072
;WIPE_START
G1 F8160
G1 X124.998 Y83.835 E-.01462
G1 X125.394 Y84.885 E-.27436
G1 X125.451 Y85.454 E-.13981
G1 X125.564 Y86.012 E-.13919
G1 X126.094 Y87.938 E-.48838
G1 X126.561 Y89.882 E-.4888
G1 X126.956 Y91.7 E-.45484
;WIPE_END
G1 Z.6 F10200
G1 X125.639 Y93.713
G1 Z.4
G1 E2 F2100
;TYPE:Solid infill
;WIDTH:0.820765
G1 F1323
G1 X124.857 Y92.93 E.13525
G1 X124.679 Y93.792 E.10757
G1 X125.49 Y94.602 E.14009
G1 X125.734 Y95.886 E.15974
G1 X124.501 Y94.653 E.21312
G1 X124.335 Y95.526 E.10861
G1 X125.944 Y97.135 E.2781
G1 X126.138 Y98.369 E.15267
G1 X124.177 Y96.408 E.33894
G1 X124.028 Y97.298 E.11029
G1 X126.305 Y99.575 E.39356
G1 X126.44 Y100.749 E.14443
G1 X123.895 Y98.205 E.4398
G1 X123.763 Y99.112 E.11202
G1 X126.557 Y101.906 E.48292
G1 X126.65 Y103.038 E.13882
G1 X123.642 Y100.031 E.51982
G1 X123.536 Y100.963 E.11464
G1 X126.724 Y104.152 E.55111
G1 X126.784 Y105.251 E.13452
G1 X123.444 Y101.911 E.5773
G1 X123.361 Y102.867 E.11728
G1 X126.827 Y106.333 E.59907
G1 X126.867 Y107.412 E.13196
G1 X123.297 Y103.843 E.61696
G1 X123.239 Y104.823 E.11998
G1 X126.888 Y108.473 E.63079
G1 X126.902 Y109.526 E.12871
G1 X123.192 Y105.817 E.64116
G1 X123.154 Y106.818 E.12243
G1 X126.906 Y110.569 E.64842
G1 X126.893 Y111.596 E.12553
G1 X123.123 Y107.826 E.65162
G1 X123.106 Y108.849 E.12505
G1 X126.873 Y112.615 E.65101
G1 X126.845 Y113.627 E.12373
G1 X123.095 Y109.876 E.64825
G1 X123.101 Y110.922 E.12784
G1 X126.799 Y114.62 E.63917
G1 X126.733 Y115.594 E.11931
M73 P1 R31
G1 X123.108 Y111.968 E.62664
G1 X123.133 Y113.033 E.1302
G1 X126.66 Y116.559 E.60953
G1 X126.565 Y117.504 E.11608
G1 X123.18 Y114.119 E.58507
G1 X123.236 Y115.214 E.134
G1 X126.451 Y118.429 E.55569
G1 X126.332 Y119.35 E.1135
G1 X123.325 Y116.342 E.51982
G1 X123.439 Y117.496 E.14173
G1 X126.197 Y120.254 E.4767
G1 X126.042 Y121.138 E.10969
G1 X123.576 Y118.672 E.42623
G1 X123.751 Y119.886 E.14991
G1 X125.874 Y122.009 E.36695
G1 X125.68 Y122.855 E.10608
G1 X123.957 Y121.132 E.29781
G1 X124.069 Y121.759 E.07784
G1 X124.218 Y122.432 E.08424
G1 X125.414 Y123.628 E.20672
G1 X125.168 Y124.057 E.06044
G1 X125.007 Y124.26 E.03167
G1 X124.149 Y123.403 E.14821
;LAYER_CHANGE
;Z:0.6
;HEIGHT:0.2
;BEFORE_LAYER_CHANGE
G92 E0.0
;0.6


;WIPE_START
G1 F8160
G1 X125.007 Y124.26 E-.29648
G1 X125.168 Y124.057 E-.06334
G1 X125.414 Y123.628 E-.1209
G1 X124.218 Y122.432 E-.41352
G1 X124.069 Y121.759 E-.16852
G1 X123.957 Y121.132 E-.15572
G1 X125.68 Y122.855 E-.59573
G1 X125.85 Y122.115 E-.18579
;WIPE_END
G1 Z.6 F10200
;AFTER_LAYER_CHANGE
;0.6
G1 X124.776 Y126.066
G1 E2 F2100
;TYPE:Perimeter
;WIDTH:0.449999
G1 F3600
G1 X124.742 Y126.062 E.00116
G1 X124.272 Y125.78 E.01855
G1 X123.889 Y125.413 E.01796
G1 X123.515 Y124.964 E.01978
G1 X123.248 Y124.513 E.01774
G1 X122.994 Y123.963 E.02051
G1 X122.772 Y123.251 E.02524
G1 X122.504 Y122.075 E.04083
G1 X122.244 Y120.619 E.05006
G1 X121.975 Y118.756 E.06371
G1 X121.774 Y116.98 E.0605
G1 X121.672 Y115.772 E.04103
G1 X121.57 Y113.979 E.06079
G1 X121.513 Y112.128 E.06268
G1 X121.496 Y110.282 E.06249
G1 X121.512 Y108.517 E.05975
G1 X121.554 Y106.78 E.05881
G1 X121.636 Y104.839 E.06576
G1 X121.749 Y102.999 E.0624
G1 X121.868 Y101.571 E.0485
G1 X122.039 Y99.968 E.05457
G1 X122.192 Y98.758 E.04128
G1 X122.472 Y96.888 E.064
G1 X122.852 Y94.745 E.07367
G1 X123.251 Y92.765 E.06837
G1 X123.876 Y89.946 E.09774
G1 X124.393 Y87.797 E.07482
G1 X124.793 Y86.36 E.05049
G1 X125.001 Y85.708 E.02317
G1 X125.316 Y86.731 E.03623
G1 X125.685 Y88.106 E.04819
G1 X126.227 Y90.394 E.07959
G1 X126.76 Y92.817 E.08398
G1 X127.15 Y94.754 E.06688
G1 X127.511 Y96.783 E.06976
G1 X127.701 Y98.009 E.04199
G1 X127.952 Y99.886 E.0641
G1 X128.129 Y101.54 E.05631
M73 Q2 S32
G1 X128.243 Y102.893 E.04596
G1 X128.34 Y104.386 E.05064
G1 X128.428 Y106.278 E.06411
M73 P2 R31
G1 X128.488 Y108.502 E.07531
G1 X128.504 Y110.283 E.06029
G1 X128.487 Y112.138 E.06279
G1 X128.431 Y113.971 E.06207
G1 X128.327 Y115.778 E.06127
G1 X128.23 Y116.942 E.03954
G1 X128.025 Y118.758 E.06186
G1 X127.755 Y120.629 E.06399
G1 X127.497 Y122.068 E.04949
G1 X127.228 Y123.252 E.0411
G1 X127.04 Y123.854 E.02135
G1 X126.817 Y124.404 E.02009
G1 X126.551 Y124.854 E.01769
G1 X126.188 Y125.34 E.02053
G1 X125.799 Y125.712 E.01822
G1 X125.506 Y125.929 E.01234
G1 X125.132 Y126.098 E.01389
G1 X124.836 Y126.071 E.01006
G1 X124.767 Y126.466 F10200
G1 F3600
G1 X124.492 Y126.397 E.0096
G1 X124.016 Y126.098 E.01903
G1 X123.508 Y125.611 E.02382
G1 X123.178 Y125.195 E.01797
G1 X122.816 Y124.582 E.0241
G1 X122.611 Y124.103 E.01764
G1 X122.378 Y123.357 E.02645
G1 X122.105 Y122.156 E.04169
G1 X121.842 Y120.684 E.05061
G1 X121.571 Y118.807 E.06419
G1 X121.369 Y117.019 E.06091
G1 X121.266 Y115.8 E.04141
G1 X121.163 Y113.997 E.06113
G1 X121.106 Y112.136 E.06302
G1 X121.088 Y110.282 E.06276
G1 X121.105 Y108.511 E.05995
G1 X121.148 Y106.767 E.05905
G1 X121.229 Y104.818 E.06603
G1 X121.343 Y102.969 E.06271
G1 X121.463 Y101.532 E.04881
G1 X121.634 Y99.921 E.05484
G1 X121.789 Y98.703 E.04156
G1 X122.07 Y96.823 E.06434
G1 X122.452 Y94.669 E.07405
G1 X122.853 Y92.681 E.06865
G1 X123.479 Y89.854 E.09801
G1 X123.999 Y87.695 E.07517
G1 X124.403 Y86.243 E.05102
G1 X124.697 Y85.325 E.03263
G1 X125.004 Y84.483 E.03034
G1 X125.385 Y85.569 E.03896
G1 X125.707 Y86.619 E.03717
G1 X126.08 Y88.006 E.04862
G1 X126.624 Y90.303 E.0799
G1 X127.158 Y92.733 E.08422
G1 X127.55 Y94.678 E.06716
G1 X127.913 Y96.716 E.07007
G1 X128.104 Y97.951 E.0423
G1 X128.356 Y99.837 E.06441
G1 X128.534 Y101.501 E.05665
G1 X128.649 Y102.863 E.04627
G1 X128.746 Y104.363 E.05088
G1 X128.835 Y106.263 E.06438
G1 X128.895 Y108.495 E.07558
G1 X128.912 Y110.283 E.06052
G1 X128.894 Y112.146 E.06306
G1 X128.837 Y113.989 E.06241
G1 X128.733 Y115.807 E.06164
G1 X128.635 Y116.982 E.03991
G1 X128.428 Y118.81 E.06227
G1 X128.156 Y120.694 E.06443
